ncols 12
nrows 12
xllcorner -70.500000
yllcorner -16.500000
cellsize 0.100000
NODATA_value -9999
3815 3820 3835 3850 3920 4050 4120 4200 4280 4350 4300 4210
3812 3818 3825 3840 3890 3980 4090 4150 4220 4290 4250 4180
3810 3815 3822 3830 3850 3920 4010 4110 4190 4230 4200 4120
3810 3812 3815 3825 3840 3880 3950 4050 4120 4170 4150 4080
3812 3810 3812 3820 3835 3860 3910 3990 4060 4110 4100 4020
3815 3812 3810 3815 3825 3840 3880 3940 4010 4050 4020 3980
3820 3815 3812 3810 3815 3825 3850 3900 3960 3990 3980 3920
3830 3822 3815 3812 3810 3818 3830 3860 3910 3940 3920 3880
3845 3835 3825 3818 3815 3815 3820 3840 3870 3890 3880 3850
3860 3850 3840 3830 3822 3818 3820 3830 3850 3860 3850 3830
3890 3875 3860 3845 3835 3828 3825 3830 3840 3845 3840 3820
3930 3910 3890 3870 3855 3840 3830 3830 3835 3838 3830 3815
